X:1022
T:Skye Air
S:Book, Patrick McDonald's Collections (1784; facsimile, 2000)
Z:Nigel Gatherer
M:4/4
L:1/8
K:F
C>D | F3 GFG | F2 G2 A2 | f2 d2 cd | F4 G>A | 
f2 d2 df | d4 G>A | F2 D2 F2 | G4 c>A | G4 :|
df | g2 g2 ga | g2 g2 ga | g2 fdfa | f2 d2 f>g | a4 gf | d4 fd | 
c2 AGFG | A4 GA | f2 d2 cf | d4 GA | F2 D2 F2 | G4 c>A | G4 :|
<end>
<start>
